Sweet-Rainbow/icons/kmix.svg

<?xml version="1.0" encoding="UTF-8" standalone="no"?>
<!-- Generator: Gravit.io -->

<svg
   xmlns:dc="http://purl.org/dc/elements/1.1/"
   xmlns:cc="http://creativecommons.org/ns#"
   xmlns:rdf="http://www.w3.org/1999/02/22-rdf-syntax-ns#"
   xmlns:svg="http://www.w3.org/2000/svg"
   xmlns="http://www.w3.org/2000/svg"
   xmlns:sodipodi="http://sodipodi.sourceforge.net/DTD/sodipodi-0.dtd"
   xmlns:inkscape="http://www.inkscape.org/namespaces/inkscape"
   style="isolation:isolate"
   viewBox="0 0 36 36"
   width="48"
   height="48"
   version="1.1"
   id="svg9"
   sodipodi:docname="kmix.svg"
   inkscape:version="0.92.4 (5da689c313, 2019-01-14)">
  <metadata
     id="metadata15">
    <rdf:RDF>
      <cc:Work
         rdf:about="">
        <dc:format>image/svg+xml</dc:format>
        <dc:type
           rdf:resource="http://purl.org/dc/dcmitype/StillImage" />
        <dc:title></dc:title>
      </cc:Work>
    </rdf:RDF>
  </metadata>
  <defs
     id="defs13" />
  <sodipodi:namedview
     pagecolor="#ffffff"
     bordercolor="#666666"
     borderopacity="1"
     objecttolerance="10"
     gridtolerance="10"
     guidetolerance="10"
     inkscape:pageopacity="0"
     inkscape:pageshadow="2"
     inkscape:window-width="640"
     inkscape:window-height="480"
     id="namedview11"
     showgrid="false"
     inkscape:zoom="29.365243"
     inkscape:cx="25.325443"
     inkscape:cy="32"
     inkscape:current-layer="svg9"
     units="px" />
  <linearGradient
     id="_lgradient_8"
     x1="0"
     y1="0.5"
     x2="1"
     y2="0.5"
     gradientTransform="matrix(38,0,0,38,5,5)"
     gradientUnits="userSpaceOnUse">
    <stop
       offset="0%"
       stop-opacity="1"
       style="stop-color:rgb(88,0,226)"
       id="stop2" />
    <stop
       offset="100%"
       stop-opacity="1"
       style="stop-color:rgb(255,0,230)"
       id="stop4" />
  </linearGradient>
  <g
     id="g826"
     transform="matrix(0.94736842,0,0,0.94736842,-4.7368421,-4.7368421)">
    <path
       id="path7"
       d="m 39,31 v 0 c 0,-1.104 0.896,-2 2,-2 v 0 c 1.104,0 2,0.896 2,2 v 0 7 c 0,2.76 -2.24,5 -5,5 H 10 C 7.24,43 5,40.76 5,38 V 10 C 5,7.24 7.24,5 10,5 h 28 c 2.76,0 5,2.24 5,5 v 7 0 c 0,1.104 -0.896,2 -2,2 v 0 c -1.104,0 -2,-0.896 -2,-2 v 0 -5 C 39,10.344 37.656,9 36,9 H 12 c -1.656,0 -3,1.344 -3,3 v 24 c 0,1.656 1.344,3 3,3 h 24 c 1.656,0 3,-1.344 3,-3 z m -6.451,-7.686 v 0 c -0.035,-0.876 0.648,-1.613 1.524,-1.645 v 0 c 0.877,-0.031 1.617,0.654 1.652,1.531 v 0 l 0.025,0.736 c 0,0.026 0,0.039 0,0.064 0,3.112 -1.245,6.11 -3.442,8.308 C 30.11,34.505 27.112,35.75 24,35.75 20.888,35.75 17.89,34.505 15.692,32.308 13.495,30.11 12.25,27.112 12.25,24 c 0,-3.112 1.245,-6.11 3.442,-8.308 2.198,-2.197 5.196,-3.442 8.308,-3.442 3.277,0 6.402,1.372 8.625,3.773 v 0 c 0.596,0.645 0.556,1.652 -0.089,2.248 v 0 c -0.645,0.596 -1.652,0.556 -2.248,-0.089 v 0 c -1.613,-1.753 -3.9,-2.756 -6.288,-2.756 -2.274,0 -4.459,0.902 -6.059,2.515 -1.613,1.6 -2.515,3.785 -2.515,6.059 0,2.274 0.902,4.459 2.515,6.059 1.6,1.613 3.785,2.515 6.059,2.515 2.274,0 4.446,-0.902 6.059,-2.502 1.601,-1.601 2.503,-3.773 2.515,-6.047 z M 21.814,24 c 0,-0.579 0.229,-1.137 0.645,-1.541 0.404,-0.416 0.962,-0.645 1.541,-0.645 0.579,0 1.137,0.229 1.541,0.645 0.416,0.404 0.645,0.962 0.645,1.541 0,0.579 -0.229,1.137 -0.645,1.541 -0.404,0.416 -0.962,0.645 -1.541,0.645 v 0 c -0.579,0 -1.137,-0.229 -1.541,-0.645 C 22.043,25.137 21.814,24.579 21.814,24 Z M 39,24 c 0,-1.104 0.896,-2 2,-2 1.104,0 2,0.896 2,2 0,1.104 -0.896,2 -2,2 -1.104,0 -2,-0.896 -2,-2 z m -19.372,0 c 0,-1.159 0.459,-2.273 1.279,-3.093 0.82,-0.82 1.934,-1.279 3.093,-1.279 1.159,0 2.273,0.459 3.093,1.279 0.82,0.82 1.279,1.934 1.279,3.093 0,1.159 -0.459,2.273 -1.279,3.093 -0.82,0.82 -1.934,1.279 -3.093,1.279 v 0 c -1.159,0 -2.273,-0.459 -3.093,-1.279 C 20.087,26.273 19.628,25.159 19.628,24 Z M 35,35.5 C 35,34.672 35.672,34 36.5,34 37.328,34 38,34.672 38,35.5 38,36.328 37.328,37 36.5,37 35.672,37 35,36.328 35,35.5 Z m -25,0 C 10,34.672 10.672,34 11.5,34 12.328,34 13,34.672 13,35.5 13,36.328 12.328,37 11.5,37 10.672,37 10,36.328 10,35.5 Z"
       inkscape:connector-curvature="0"
       style="fill:url(#_lgradient_8);fill-rule:evenodd" />
  </g>
</svg>

<?xml version="1.0" encoding="UTF-8" standalone="no"?><!-- Generator: Gravit.io --><svg xmlns="http://www.w3.org/2000/svg" xmlns:xlink="http://www.w3.org/1999/xlink" style="isolation:isolate" viewBox="0 0 48 48" width="48pt" height="48pt"><linearGradient id="_lgradient_8" x1="0" y1="0.5" x2="1" y2="0.5" gradientTransform="matrix(38,0,0,38,5,5)" gradientUnits="userSpaceOnUse"><stop offset="0%" stop-opacity="1" style="stop-color:rgb(88,0,226)"/><stop offset="100%" stop-opacity="1" style="stop-color:rgb(255,0,230)"/></linearGradient><path d=" M 39 31 L 39 31 C 39 29.896 39.896 29 41 29 L 41 29 C 42.104 29 43 29.896 43 31 L 43 31 L 43 38 C 43 40.76 40.76 43 38 43 L 10 43 C 7.24 43 5 40.76 5 38 L 5 10 C 5 7.24 7.24 5 10 5 L 38 5 C 40.76 5 43 7.24 43 10 L 43 17 L 43 17 C 43 18.104 42.104 19 41 19 L 41 19 C 39.896 19 39 18.104 39 17 L 39 17 L 39 12 C 39 10.344 37.656 9 36 9 L 12 9 C 10.344 9 9 10.344 9 12 L 9 36 C 9 37.656 10.344 39 12 39 L 36 39 C 37.656 39 39 37.656 39 36 L 39 31 L 39 31 L 39 31 L 39 31 Z  M 32.549 23.314 L 32.549 23.314 C 32.514 22.438 33.197 21.701 34.073 21.669 L 34.073 21.669 C 34.95 21.638 35.69 22.323 35.725 23.2 L 35.725 23.2 L 35.75 23.936 C 35.75 23.962 35.75 23.975 35.75 24 C 35.75 27.112 34.505 30.11 32.308 32.308 C 30.11 34.505 27.112 35.75 24 35.75 C 20.888 35.75 17.89 34.505 15.692 32.308 C 13.495 30.11 12.25 27.112 12.25 24 C 12.25 20.888 13.495 17.89 15.692 15.692 C 17.89 13.495 20.888 12.25 24 12.25 C 27.277 12.25 30.402 13.622 32.625 16.023 L 32.625 16.023 C 33.221 16.668 33.181 17.675 32.536 18.271 L 32.536 18.271 C 31.891 18.867 30.884 18.827 30.288 18.182 L 30.288 18.182 C 28.675 16.429 26.388 15.426 24 15.426 C 21.726 15.426 19.541 16.328 17.941 17.941 C 16.328 19.541 15.426 21.726 15.426 24 C 15.426 26.274 16.328 28.459 17.941 30.059 C 19.541 31.672 21.726 32.574 24 32.574 C 26.274 32.574 28.446 31.672 30.059 30.072 C 31.66 28.471 32.562 26.299 32.574 24.025 L 32.549 23.314 L 32.549 23.314 L 32.549 23.314 L 32.549 23.314 Z  M 21.814 24 C 21.814 23.421 22.043 22.863 22.459 22.459 C 22.863 22.043 23.421 21.814 24 21.814 C 24.579 21.814 25.137 22.043 25.541 22.459 C 25.957 22.863 26.186 23.421 26.186 24 C 26.186 24.579 25.957 25.137 25.541 25.541 C 25.137 25.957 24.579 26.186 24 26.186 L 24 26.186 C 23.421 26.186 22.863 25.957 22.459 25.541 C 22.043 25.137 21.814 24.579 21.814 24 L 21.814 24 L 21.814 24 L 21.814 24 Z  M 39 24 C 39 22.896 39.896 22 41 22 C 42.104 22 43 22.896 43 24 C 43 25.104 42.104 26 41 26 C 39.896 26 39 25.104 39 24 L 39 24 Z  M 19.628 24 C 19.628 22.841 20.087 21.727 20.907 20.907 C 21.727 20.087 22.841 19.628 24 19.628 C 25.159 19.628 26.273 20.087 27.093 20.907 C 27.913 21.727 28.372 22.841 28.372 24 C 28.372 25.159 27.913 26.273 27.093 27.093 C 26.273 27.913 25.159 28.372 24 28.372 L 24 28.372 C 22.841 28.372 21.727 27.913 20.907 27.093 C 20.087 26.273 19.628 25.159 19.628 24 L 19.628 24 L 19.628 24 L 19.628 24 Z  M 35 35.5 C 35 34.672 35.672 34 36.5 34 C 37.328 34 38 34.672 38 35.5 C 38 36.328 37.328 37 36.5 37 C 35.672 37 35 36.328 35 35.5 L 35 35.5 Z  M 10 35.5 C 10 34.672 10.672 34 11.5 34 C 12.328 34 13 34.672 13 35.5 C 13 36.328 12.328 37 11.5 37 C 10.672 37 10 36.328 10 35.5 L 10 35.5 Z " fill-rule="evenodd" fill="url(#_lgradient_8)"/></svg>
